assets/bxl-instagram-alt.svg

<svg xmlns="http://www.w3.org/2000/svg" width="24" height="24" viewBox="0 0 24 24"><path d="M20.947 8.305a6.53 6.53 0 0 0-.419-2.216 4.61 4.61 0 0 0-2.633-2.633 6.606 6.606 0 0 0-2.186-.42c-.962-.043-1.267-.055-3.709-.055s-2.755 0-3.71.055a6.606 6.606 0 0 0-2.185.42 4.607 4.607 0 0 0-2.633 2.633 6.554 6.554 0 0 0-.419 2.185c-.043.963-.056 1.268-.056 3.71s0 2.754.056 3.71c.015.748.156 1.486.419 2.187a4.61 4.61 0 0 0 2.634 2.632 6.584 6.584 0 0 0 2.185.45c.963.043 1.268.056 3.71.056s2.755 0 3.71-.056a6.59 6.59 0 0 0 2.186-.419 4.615 4.615 0 0 0 2.633-2.633c.263-.7.404-1.438.419-2.187.043-.962.056-1.267.056-3.71-.002-2.442-.002-2.752-.058-3.709zm-8.953 8.297c-2.554 0-4.623-2.069-4.623-4.623s2.069-4.623 4.623-4.623a4.623 4.623 0 0 1 0 9.246zm4.807-8.339a1.077 1.077 0 0 1-1.078-1.078 1.077 1.077 0 1 1 2.155 0c0 .596-.482 1.078-1.077 1.078z"/><circle cx="11.994" cy="11.979" r="3.003"/></svg>

<?xml version="1.0" encoding="utf-8"?>
<!-- Generator: Adobe Illustrator 26.0.0, SVG Export Plug-In . SVG Version: 6.00 Build 0)  -->
<svg version="1.1" id="Layer_1" xmlns="http://www.w3.org/2000/svg" xmlns:xlink="http://www.w3.org/1999/xlink" x="0px" y="0px"
	 viewBox="0 0 24 24" style="enable-background:new 0 0 24 24;" xml:space="preserve">
<style type="text/css">
	.st0{fill:#F72585;}
</style>
<path class="st0" d="M20.9,8.3c0-0.8-0.2-1.5-0.4-2.2c-0.5-1.2-1.4-2.2-2.6-2.6c-0.7-0.3-1.4-0.4-2.2-0.4C14.7,3,14.4,3,12,3
	S9.2,3,8.3,3c-0.7,0-1.5,0.2-2.2,0.4C4.9,3.9,3.9,4.9,3.5,6.1C3.2,6.8,3.1,7.5,3.1,8.3C3,9.2,3,9.5,3,12s0,2.8,0.1,3.7
	c0,0.7,0.2,1.5,0.4,2.2c0.5,1.2,1.4,2.2,2.6,2.6c0.7,0.3,1.4,0.4,2.2,0.5c1,0,1.3,0.1,3.7,0.1s2.8,0,3.7-0.1c0.7,0,1.5-0.2,2.2-0.4
	c1.2-0.5,2.2-1.4,2.6-2.6c0.3-0.7,0.4-1.4,0.4-2.2c0-1,0.1-1.3,0.1-3.7C21,9.6,21,9.3,20.9,8.3z M12,16.6c-2.6,0-4.6-2.1-4.6-4.6
	S9.4,7.4,12,7.4c2.6,0,4.6,2.1,4.6,4.6S14.5,16.6,12,16.6z M16.8,8.3c-0.6,0-1.1-0.5-1.1-1.1c0,0,0,0,0,0c0-0.6,0.5-1.1,1.1-1.1
	s1.1,0.5,1.1,1.1l0,0C17.9,7.8,17.4,8.3,16.8,8.3z"/>
<circle class="st0" cx="12" cy="12" r="3"/>
</svg>
